; G-Code generated by Simplify3D(R) Version 4.1.1
; Mar 3, 2019 at 10:20:45 AM
; Settings Summary
;   processName,RepRapper PLA-B Mid Fill
;   applyToModels,string_test_fast_pyramid
;   profileName,FlashForge Adventurer 3 - F (modified)
;   profileVersion,2018-12-04 20:36:08
;   baseProfile,FlashForge Adventurer 3 (modified)
;   printMaterial,RepRapper PLA Black
;   printQuality,Medium
;   printExtruders,
;   extruderName,Primary Extruder
;   extruderToolheadNumber,0
;   extruderDiameter,0.4
;   extruderAutoWidth,0
;   extruderWidth,0.4
;   extrusionMultiplier,1
;   extruderUseRetract,1
;   extruderRetractionDistance,5
;   extruderExtraRestartDistance,0
;   extruderRetractionZLift,0
;   extruderRetractionSpeed,2400
;   extruderUseCoasting,0
;   extruderCoastingDistance,0.2
;   extruderUseWipe,1
;   extruderWipeDistance,3
;   primaryExtruder,0
;   layerHeight,0.18
;   topSolidLayers,3
;   bottomSolidLayers,3
;   perimeterOutlines,3
;   printPerimetersInsideOut,1
;   startPointOption,2
;   startPointOriginX,0
;   startPointOriginY,0
;   sequentialIslands,0
;   spiralVaseMode,0
;   firstLayerHeightPercentage,128
;   firstLayerWidthPercentage,100
;   firstLayerUnderspeed,0.3
;   useRaft,0
;   raftExtruder,0
;   raftTopLayers,3
;   raftBaseLayers,1
;   raftOffset,4
;   raftSeparationDistance,0.2
;   raftTopInfill,100
;   aboveRaftSpeedMultiplier,0.3
;   useSkirt,1
;   skirtExtruder,0
;   skirtLayers,1
;   skirtOutlines,1
;   skirtOffset,2
;   usePrimePillar,0
;   primePillarExtruder,999
;   primePillarWidth,12
;   primePillarLocation,7
;   primePillarSpeedMultiplier,1
;   useOozeShield,0
;   oozeShieldExtruder,999
;   oozeShieldOffset,2
;   oozeShieldOutlines,1
;   oozeShieldSidewallShape,1
;   oozeShieldSidewallAngle,30
;   oozeShieldSpeedMultiplier,1
;   infillExtruder,0
;   internalInfillPattern,Rectilinear
;   externalInfillPattern,Rectilinear
;   infillPercentage,100
;   outlineOverlapPercentage,25
;   infillExtrusionWidthPercentage,100
;   minInfillLength,5
;   infillLayerInterval,1
;   internalInfillAngles,45,-45
;   overlapInternalInfillAngles,0
;   externalInfillAngles,45,-45
;   generateSupport,1
;   supportExtruder,0
;   supportInfillPercentage,30
;   supportExtraInflation,0
;   supportBaseLayers,0
;   denseSupportExtruder,0
;   denseSupportLayers,0
;   denseSupportInfillPercentage,70
;   supportLayerInterval,1
;   supportHorizontalPartOffset,0.3
;   supportUpperSeparationLayers,1
;   supportLowerSeparationLayers,1
;   supportType,0
;   supportGridSpacing,4
;   maxOverhangAngle,45
;   supportAngles,0
;   temperatureName,Primary Extruder,Heated Bed
;   temperatureNumber,0,0
;   temperatureSetpointCount,1,1
;   temperatureSetpointLayers,1,1
;   temperatureSetpointTemperatures,210,55
;   temperatureStabilizeAtStartup,1,1
;   temperatureHeatedBed,0,1
;   fanLayers,1,2
;   fanSpeeds,0,100
;   blipFanToFullPower,0
;   adjustSpeedForCooling,1
;   minSpeedLayerTime,13
;   minCoolingSpeedSlowdown,20
;   increaseFanForCooling,0
;   minFanLayerTime,45
;   maxCoolingFanSpeed,100
;   increaseFanForBridging,0
;   bridgingFanSpeed,100
;   use5D,1
;   relativeEdistances,0
;   allowEaxisZeroing,1
;   independentExtruderAxes,1
;   includeM10123,0
;   stickySupport,1
;   applyToolheadOffsets,0
;   gcodeXoffset,0
;   gcodeYoffset,0
;   gcodeZoffset,0
;   overrideMachineDefinition,1
;   machineTypeOverride,0
;   strokeXoverride,150
;   strokeYoverride,150
;   strokeZoverride,150
;   originOffsetXoverride,75
;   originOffsetYoverride,75
;   originOffsetZoverride,0
;   homeXdirOverride,-1
;   homeYdirOverride,-1
;   homeZdirOverride,-1
;   flipXoverride,1
;   flipYoverride,-1
;   flipZoverride,1
;   toolheadOffsets,0,0|0,0|0,0|0,0|0,0|0,0
;   overrideFirmwareConfiguration,1
;   firmwareTypeOverride,FlashForge Adventurer3.frm
;   GPXconfigOverride,r2
;   baudRateOverride,115200
;   overridePrinterModels,1
;   printerModelsOverride
;   startingGcode,
;   layerChangeGcode,
;   retractionGcode,
;   toolChangeGcode,
;   endingGcode,
;   exportFileFormat,gcode
;   celebration,0
;   celebrationSong,Random Song
;   postProcessing,{EXTENSION "g"},
;   defaultSpeed,3600
;   outlineUnderspeed,0.5
;   solidInfillUnderspeed,0.7
;   supportUnderspeed,0.7
;   rapidXYspeed,4800
;   rapidZspeed,300
;   minBridgingArea,50
;   bridgingExtraInflation,0
;   bridgingExtrusionMultiplier,1
;   bridgingSpeedMultiplier,1
;   useFixedBridgingAngle,0
;   fixedBridgingAngle,0
;   applyBridgingToPerimeters,0
;   filamentDiameters,1.75|1.75|1.75|1.75|1.75|1.75
;   filamentPricesPerKg,22|46|46|46|46|46
;   filamentDensities,1.25|1.25|1.25|1.25|1.25|1.25
;   useMinPrintHeight,0
;   minPrintHeight,0
;   useMaxPrintHeight,0
;   maxPrintHeight,0
;   useDiaphragm,0
;   diaphragmLayerInterval,20
;   robustSlicing,1
;   mergeAllIntoSolid,0
;   onlyRetractWhenCrossingOutline,1
;   retractBetweenLayers,0
;   useRetractionMinTravel,1
;   retractionMinTravel,0.05
;   retractWhileWiping,0
;   onlyWipeOutlines,0
;   avoidCrossingOutline,0
;   maxMovementDetourFactor,3
;   toolChangeRetractionDistance,12
;   toolChangeExtraRestartDistance,-0.5
;   toolChangeRetractionSpeed,600
;   externalThinWallType,0
;   internalThinWallType,2
;   thinWallAllowedOverlapPercentage,10
;   singleExtrusionMinLength,1
;   singleExtrusionMinPrintingWidthPercentage,50
;   singleExtrusionMaxPrintingWidthPercentage,200
;   singleExtrusionEndpointExtension,0.2
;   horizontalSizeCompensation,0
G90
M82
M107
M140 S55 T0
M104 S210 T0
M104 S0 T1
; process RepRapper PLA-B Mid Fill
; layer 1, Z = 0.230
M108 T0
G92 E0.0000
G1 E-5.0000 F2400
; feature skirt
; tool H0.230 W0.400
G1 Z0.230 F300
G1 X10.911 Y6.200 F4800
G1 E0.0000 F2400
G92 E0.0000
G1 X-10.911 Y6.200 E0.8361 F1080
G1 X-12.200 Y4.911 E0.9060
G1 X-12.200 Y-4.911 E1.2823
G1 X-10.911 Y-6.200 E1.3522
G1 X10.911 Y-6.200 E2.1883
G1 X12.200 Y-4.911 E2.2581
G1 X12.200 Y4.911 E2.6345
G1 X10.911 Y6.200 E2.7043
G92 E0.0000
G1 E-5.0000 F2400
; feature inner perimeter
G1 X9.000 Y3.000 F4800
G1 E0.0000 F2400
G92 E0.0000
G1 X-9.000 Y3.000 E0.6897 F810
G1 X-9.000 Y-3.000 E0.9196
G1 X9.000 Y-3.000 E1.6093
G1 X9.000 Y3.000 E1.8392
G1 X6.000 Y3.000 F810
G1 X9.400 Y3.400 F4800
G92 E0.0000
G1 X-9.400 Y3.400 E0.7203 F810
G1 X-9.400 Y-3.400 E0.9809
G1 X9.400 Y-3.400 E1.7012
G1 X9.400 Y3.400 E1.9618
G1 X6.400 Y3.400 F810
; feature outer perimeter
G1 X9.800 Y3.800 F4800
G92 E0.0000
G1 X-9.800 Y3.800 E0.7510 F540
G1 X-9.800 Y-3.800 E1.0422
G1 X9.800 Y-3.800 E1.7932
G1 X9.800 Y3.800 E2.0844
G1 X6.800 Y3.800 F540
; feature solid layer
G1 X8.614 Y-2.700 F4800
G92 E0.0000
G1 X8.700 Y-2.614 E0.0047 F756
G1 X8.700 Y-2.048 E0.0263
G1 X8.048 Y-2.700 E0.0617
G1 X7.482 Y-2.700 E0.0834
G1 X8.700 Y-1.482 E0.1493
G1 X8.700 Y-0.917 E0.1710
G1 X6.917 Y-2.700 E0.2676
G1 X6.351 Y-2.700 E0.2893
G1 X8.700 Y-0.351 E0.4166
G1 X8.700 Y0.215 E0.4383
G1 X5.785 Y-2.700 E0.5962
G1 X5.220 Y-2.700 E0.6179
G1 X8.700 Y0.780 E0.8065
G1 X8.700 Y1.346 E0.8282
G1 X4.654 Y-2.700 E1.0474
G1 X4.088 Y-2.700 E1.0691
G1 X8.700 Y1.912 E1.3190
G1 X8.700 Y2.477 E1.3406
G1 X3.523 Y-2.700 E1.6212
G1 X2.957 Y-2.700 E1.6429
G1 X8.357 Y2.700 E1.9355
G1 X7.791 Y2.700 E1.9571
G1 X2.391 Y-2.700 E2.2498
G1 X1.825 Y-2.700 E2.2714
G1 X7.225 Y2.700 E2.5640
G1 X6.660 Y2.700 E2.5857
G1 X1.260 Y-2.700 E2.8783
G1 X0.694 Y-2.700 E2.9000
G1 X6.094 Y2.700 E3.1926
G1 X5.528 Y2.700 E3.2143
G1 X0.128 Y-2.700 E3.5069
G1 X-0.437 Y-2.700 E3.5286
G1 X4.963 Y2.700 E3.8212
G1 X4.397 Y2.700 E3.8428
G1 X-1.003 Y-2.700 E4.1354
G1 X-1.569 Y-2.700 E4.1571
G1 X3.831 Y2.700 E4.4497
G1 X3.266 Y2.700 E4.4714
G1 X-2.134 Y-2.700 E4.7640
G1 X-2.700 Y-2.700 E4.7857
G1 X2.700 Y2.700 E5.0783
G1 X2.134 Y2.700 E5.1000
G1 X-3.266 Y-2.700 E5.3926
G1 X-3.831 Y-2.700 E5.4142
G1 X1.569 Y2.700 E5.7069
G1 X1.003 Y2.700 E5.7285
G1 X-4.397 Y-2.700 E6.0211
G1 X-4.963 Y-2.700 E6.0428
G1 X0.437 Y2.700 E6.3354
G1 X-0.128 Y2.700 E6.3571
G1 X-5.528 Y-2.700 E6.6497
G1 X-6.094 Y-2.700 E6.6714
G1 X-0.694 Y2.700 E6.9640
G1 X-1.260 Y2.700 E6.9857
G1 X-6.660 Y-2.700 E7.2783
G1 X-7.225 Y-2.700 E7.2999
G1 X-1.825 Y2.700 E7.5925
G1 X-2.391 Y2.700 E7.6142
G1 X-7.791 Y-2.700 E7.9068
G1 X-8.357 Y-2.700 E7.9285
G1 X-2.957 Y2.700 E8.2211
G1 X-3.523 Y2.700 E8.2428
G1 X-8.700 Y-2.477 E8.5233
G1 X-8.700 Y-1.912 E8.5450
G1 X-4.088 Y2.700 E8.7949
G1 X-4.654 Y2.700 E8.8166
G1 X-8.700 Y-1.346 E9.0358
G1 X-8.700 Y-0.780 E9.0575
G1 X-5.220 Y2.700 E9.2461
G1 X-5.785 Y2.700 E9.2678
G1 X-8.700 Y-0.215 E9.4257
G1 X-8.700 Y0.351 E9.4474
G1 X-6.351 Y2.700 E9.5747
G1 X-6.917 Y2.700 E9.5963
G1 X-8.700 Y0.917 E9.6930
G1 X-8.700 Y1.482 E9.7146
G1 X-7.482 Y2.700 E9.7806
G1 X-8.048 Y2.700 E9.8023
G1 X-8.700 Y2.048 E9.8376
G1 X-8.700 Y2.614 E9.8593
G1 X-8.614 Y2.700 E9.8640
G1 X-8.700 Y2.614 F756
G1 X-8.700 Y2.048
G1 X-8.048 Y2.700
G1 X-7.482 Y2.700
G1 X-8.065 Y2.117
; layer 2, Z = 0.410
M106 S255
; feature inner perimeter
; tool H0.180 W0.400
G1 Z0.410 F300
G1 X-9.000 Y3.000 F4800
G92 E0.0000
G1 X-9.000 Y-3.000 E0.1796 F2108
G1 X9.000 Y-3.000 E0.7184
G1 X9.000 Y3.000 E0.8980
G1 X-9.000 Y3.000 E1.4368
G1 X-9.000 Y0.000 F2108
G1 X-9.400 Y3.400 F4800
G92 E0.0000
G1 X-9.400 Y-3.400 E0.2036 F2108
G1 X9.400 Y-3.400 E0.7663
G1 X9.400 Y3.400 E0.9699
G1 X-9.400 Y3.400 E1.5326
G1 X-9.400 Y0.400 F2108
; feature outer perimeter
G1 X-9.800 Y3.800 F4800
G92 E0.0000
G1 X-9.800 Y-3.800 E0.2275 F1405
G1 X9.800 Y-3.800 E0.8142
G1 X9.800 Y3.800 E1.0417
G1 X-9.800 Y3.800 E1.6284
G1 X-9.800 Y0.800 F1405
; feature solid layer
G1 X-8.700 Y-2.614 F4800
G92 E0.0000
G1 X-8.614 Y-2.700 E0.0037 F1967
G1 X-8.048 Y-2.700 E0.0206
G1 X-8.700 Y-2.048 E0.0482
G1 X-8.700 Y-1.482 E0.0651
G1 X-7.482 Y-2.700 E0.1167
G1 X-6.917 Y-2.700 E0.1336
G1 X-8.700 Y-0.917 E0.2091
G1 X-8.700 Y-0.351 E0.2260
G1 X-6.351 Y-2.700 E0.3255
G1 X-5.785 Y-2.700 E0.3424
G1 X-8.700 Y0.215 E0.4658
G1 X-8.700 Y0.780 E0.4827
G1 X-5.220 Y-2.700 E0.6301
G1 X-4.654 Y-2.700 E0.6470
G1 X-8.700 Y1.346 E0.8183
G1 X-8.700 Y1.912 E0.8352
G1 X-4.088 Y-2.700 E1.0305
G1 X-3.523 Y-2.700 E1.0474
G1 X-8.700 Y2.477 E1.2666
G1 X-8.700 Y2.700 E1.2732
G1 X-8.357 Y2.700 E1.2835
G1 X-2.957 Y-2.700 E1.5121
G1 X-2.391 Y-2.700 E1.5290
G1 X-7.791 Y2.700 E1.7576
G1 X-7.225 Y2.700 E1.7746
G1 X-1.825 Y-2.700 E2.0032
G1 X-1.260 Y-2.700 E2.0201
G1 X-6.660 Y2.700 E2.2487
G1 X-6.094 Y2.700 E2.2656
G1 X-0.694 Y-2.700 E2.4942
G1 X-0.128 Y-2.700 E2.5112
G1 X-5.528 Y2.700 E2.7398
G1 X-4.963 Y2.700 E2.7567
G1 X0.437 Y-2.700 E2.9853
G1 X1.003 Y-2.700 E3.0022
G1 X-4.397 Y2.700 E3.2308
G1 X-3.831 Y2.700 E3.2478
G1 X1.569 Y-2.700 E3.4764
G1 X2.134 Y-2.700 E3.4933
G1 X-3.266 Y2.700 E3.7219
G1 X-2.700 Y2.700 E3.7388
G1 X2.700 Y-2.700 E3.9674
G1 X3.266 Y-2.700 E3.9844
G1 X-2.134 Y2.700 E4.2130
G1 X-1.569 Y2.700 E4.2299
G1 X3.831 Y-2.700 E4.4585
G1 X4.397 Y-2.700 E4.4754
G1 X-1.003 Y2.700 E4.7040
G1 X-0.437 Y2.700 E4.7210
G1 X4.963 Y-2.700 E4.9496
G1 X5.528 Y-2.700 E4.9665
G1 X0.128 Y2.700 E5.1951
G1 X0.694 Y2.700 E5.2120
G1 X6.094 Y-2.700 E5.4406
G1 X6.660 Y-2.700 E5.4576
G1 X1.260 Y2.700 E5.6862
G1 X1.826 Y2.700 E5.7031
G1 X7.226 Y-2.700 E5.9317
G1 X7.791 Y-2.700 E5.9486
G1 X2.391 Y2.700 E6.1772
G1 X2.957 Y2.700 E6.1942
G1 X8.357 Y-2.700 E6.4228
G1 X8.700 Y-2.700 E6.4330
G1 X8.700 Y-2.477 E6.4397
G1 X3.523 Y2.700 E6.6589
G1 X4.088 Y2.700 E6.6758
G1 X8.700 Y-1.912 E6.8710
G1 X8.700 Y-1.346 E6.8880
G1 X4.654 Y2.700 E7.0593
G1 X5.220 Y2.700 E7.0762
G1 X8.700 Y-0.780 E7.2235
G1 X8.700 Y-0.215 E7.2405
G1 X5.785 Y2.700 E7.3638
G1 X6.351 Y2.700 E7.3808
G1 X8.700 Y0.351 E7.4802
G1 X8.700 Y0.917 E7.4971
G1 X6.917 Y2.700 E7.5726
G1 X7.482 Y2.700 E7.5896
G1 X8.700 Y1.482 E7.6411
G1 X8.700 Y2.048 E7.6581
G1 X8.048 Y2.700 E7.6857
G1 X8.614 Y2.700 E7.7026
G1 X8.700 Y2.614 E7.7062
G1 X8.614 Y2.700 F1967
G1 X8.048 Y2.700
G1 X8.700 Y2.048
G1 X8.700 Y1.482
G1 X8.117 Y2.065
; layer 3, Z = 0.590
; feature inner perimeter
G1 Z0.590 F300
G1 X9.000 Y3.000 F4800
G92 E0.0000
G1 X-9.000 Y3.000 E0.5388 F2108
G1 X-9.000 Y-3.000 E0.7184
G1 X9.000 Y-3.000 E1.2572
G1 X9.000 Y3.000 E1.4368
G1 X6.000 Y3.000 F2108
G1 X9.400 Y3.400 F4800
G92 E0.0000
G1 X-9.400 Y3.400 E0.5628 F2108
G1 X-9.400 Y-3.400 E0.7663
G1 X9.400 Y-3.400 E1.3291
G1 X9.400 Y3.400 E1.5326
G1 X6.400 Y3.400 F2108
; feature outer perimeter
G1 X9.800 Y3.800 F4800
G92 E0.0000
G1 X-9.800 Y3.800 E0.5867 F1405
G1 X-9.800 Y-3.800 E0.8142
G1 X9.800 Y-3.800 E1.4009
G1 X9.800 Y3.800 E1.6284
G1 X6.800 Y3.800 F1405
; feature solid layer
G1 X8.614 Y-2.700 F4800
G92 E0.0000
G1 X8.700 Y-2.614 E0.0037 F1967
G1 X8.700 Y-2.048 E0.0206
G1 X8.048 Y-2.700 E0.0482
G1 X7.482 Y-2.700 E0.0651
G1 X8.700 Y-1.482 E0.1167
G1 X8.700 Y-0.917 E0.1336
G1 X6.917 Y-2.700 E0.2091
G1 X6.351 Y-2.700 E0.2260
G1 X8.700 Y-0.351 E0.3255
G1 X8.700 Y0.215 E0.3424
G1 X5.785 Y-2.700 E0.4658
G1 X5.220 Y-2.700 E0.4827
G1 X8.700 Y0.780 E0.6301
G1 X8.700 Y1.346 E0.6470
G1 X4.654 Y-2.700 E0.8183
G1 X4.088 Y-2.700 E0.8352
G1 X8.700 Y1.912 E1.0304
G1 X8.700 Y2.477 E1.0474
G1 X3.523 Y-2.700 E1.2666
G1 X2.957 Y-2.700 E1.2835
G1 X8.357 Y2.700 E1.5121
G1 X7.791 Y2.700 E1.5290
G1 X2.391 Y-2.700 E1.7576
G1 X1.825 Y-2.700 E1.7746
G1 X7.225 Y2.700 E2.0032
G1 X6.660 Y2.700 E2.0201
G1 X1.260 Y-2.700 E2.2487
G1 X0.694 Y-2.700 E2.2656
G1 X6.094 Y2.700 E2.4942
G1 X5.528 Y2.700 E2.5112
G1 X0.128 Y-2.700 E2.7397
G1 X-0.437 Y-2.700 E2.7567
G1 X4.963 Y2.700 E2.9853
G1 X4.397 Y2.700 E3.0022
G1 X-1.003 Y-2.700 E3.2308
G1 X-1.569 Y-2.700 E3.2477
G1 X3.831 Y2.700 E3.4763
G1 X3.266 Y2.700 E3.4933
G1 X-2.134 Y-2.700 E3.7219
G1 X-2.700 Y-2.700 E3.7388
G1 X2.700 Y2.700 E3.9674
G1 X2.134 Y2.700 E3.9843
G1 X-3.266 Y-2.700 E4.2129
G1 X-3.831 Y-2.700 E4.2299
G1 X1.569 Y2.700 E4.4585
G1 X1.003 Y2.700 E4.4754
G1 X-4.397 Y-2.700 E4.7040
G1 X-4.963 Y-2.700 E4.7209
G1 X0.437 Y2.700 E4.9495
G1 X-0.128 Y2.700 E4.9665
G1 X-5.528 Y-2.700 E5.1951
G1 X-6.094 Y-2.700 E5.2120
G1 X-0.694 Y2.700 E5.4406
G1 X-1.260 Y2.700 E5.4575
G1 X-6.660 Y-2.700 E5.6861
G1 X-7.225 Y-2.700 E5.7031
G1 X-1.825 Y2.700 E5.9317
G1 X-2.391 Y2.700 E5.9486
G1 X-7.791 Y-2.700 E6.1772
G1 X-8.357 Y-2.700 E6.1941
G1 X-2.957 Y2.700 E6.4227
G1 X-3.523 Y2.700 E6.4397
G1 X-8.700 Y-2.477 E6.6589
G1 X-8.700 Y-1.912 E6.6758
G1 X-4.088 Y2.700 E6.8710
G1 X-4.654 Y2.700 E6.8880
G1 X-8.700 Y-1.346 E7.0592
G1 X-8.700 Y-0.780 E7.0762
G1 X-5.220 Y2.700 E7.2235
G1 X-5.785 Y2.700 E7.2404
G1 X-8.700 Y-0.215 E7.3638
G1 X-8.700 Y0.351 E7.3808
G1 X-6.351 Y2.700 E7.4802
G1 X-6.917 Y2.700 E7.4971
G1 X-8.700 Y0.917 E7.5726
G1 X-8.700 Y1.482 E7.5896
G1 X-7.482 Y2.700 E7.6411
G1 X-8.048 Y2.700 E7.6581
G1 X-8.700 Y2.048 E7.6857
G1 X-8.700 Y2.614 E7.7026
G1 X-8.614 Y2.700 E7.7062
G1 X-8.700 Y2.614 F1967
G1 X-8.700 Y2.048
G1 X-8.048 Y2.700
G1 X-7.482 Y2.700
G1 X-8.065 Y2.117
; layer 4, Z = 0.770
; feature inner perimeter
G1 Z0.770 F300
G1 X-9.000 Y3.000 F4800
G92 E0.0000
G1 X-9.000 Y-3.000 E0.1796 F2101
G1 X9.000 Y-3.000 E0.7184
G1 X9.000 Y3.000 E0.8980
G1 X-9.000 Y3.000 E1.4368
G1 X-9.000 Y0.000 F2101
G1 X-9.400 Y3.400 F4800
G92 E0.0000
G1 X-9.400 Y-3.400 E0.2036 F2101
G1 X9.400 Y-3.400 E0.7663
G1 X9.400 Y3.400 E0.9699
G1 X-9.400 Y3.400 E1.5326
G1 X-9.400 Y0.400 F2101
; feature outer perimeter
G1 X-9.800 Y3.800 F4800
G92 E0.0000
G1 X-9.800 Y-3.800 E0.2275 F1400
G1 X9.800 Y-3.800 E0.8142
G1 X9.800 Y3.800 E1.0417
G1 X-9.800 Y3.800 E1.6284
G1 X-9.800 Y0.800 F1400
; feature solid layer
G1 X-7.464 Y-0.456 F4800
G92 E0.0000
G1 X-5.220 Y-2.700 E0.0950 F1961
G1 X-4.654 Y-2.700 E0.1119
G1 X-6.898 Y-0.456 E0.2069
G1 X-6.644 Y-0.456 E0.2145
G1 X-6.644 Y-0.144 E0.2239
G1 X-4.088 Y-2.700 E0.3321
G1 X-3.523 Y-2.700 E0.3490
G1 X-6.644 Y0.422 E0.4812
G1 X-4.523 Y-1.700 F1961
G1 X-8.700 Y-2.614 F4800
G92 E0.0000
G1 X-8.614 Y-2.700 E0.0037 F1961
G1 X-8.048 Y-2.700 E0.0206
G1 X-8.700 Y-2.048 E0.0482
G1 X-8.700 Y-1.482 E0.0651
G1 X-7.482 Y-2.700 E0.1167
G1 X-6.917 Y-2.700 E0.1336
G1 X-8.700 Y-0.917 E0.2091
G1 X-8.700 Y-0.351 E0.2260
G1 X-6.351 Y-2.700 E0.3255
G1 X-5.785 Y-2.700 E0.3424
G1 X-8.700 Y0.215 E0.4658
G1 X-8.700 Y0.780 E0.4827
G1 X-7.556 Y-0.364 E0.5312
G1 X-7.556 Y0.202 E0.5481
G1 X-8.700 Y1.346 E0.5965
G1 X-8.700 Y1.912 E0.6135
G1 X-7.244 Y0.456 E0.6751
G1 X-6.678 Y0.456 E0.6920
G1 X-8.700 Y2.477 E0.7776
