; G-Code generated by Simplify3D(R) Version 4.1.1
; Jan 15, 2019 at 10:58:38 AM
; Settings Summary
;   processName,Process1
;   applyToModels,box
;   profileName,FlashForge Adventurer 3 - F
;   profileVersion,2018-12-04 20:36:08
;   baseProfile,FlashForge Adventurer 3 (modified)
;   printMaterial,RepRapper PLA Black
;   printQuality,Medium
;   printExtruders,
;   extruderName,Primary Extruder
;   extruderToolheadNumber,0
;   extruderDiameter,0.4
;   extruderAutoWidth,0
;   extruderWidth,0.4
;   extrusionMultiplier,0.95
;   extruderUseRetract,1
;   extruderRetractionDistance,5
;   extruderExtraRestartDistance,0
;   extruderRetractionZLift,0
;   extruderRetractionSpeed,2400
;   extruderUseCoasting,0
;   extruderCoastingDistance,0.2
;   extruderUseWipe,1
;   extruderWipeDistance,1
;   primaryExtruder,0
;   layerHeight,0.1
;   topSolidLayers,0
;   bottomSolidLayers,3
;   perimeterOutlines,1
;   printPerimetersInsideOut,1
;   startPointOption,2
;   startPointOriginX,0
;   startPointOriginY,0
;   sequentialIslands,0
;   spiralVaseMode,0
;   firstLayerHeightPercentage,128
;   firstLayerWidthPercentage,100
;   firstLayerUnderspeed,0.3
;   useRaft,0
;   raftExtruder,0
;   raftTopLayers,3
;   raftBaseLayers,1
;   raftOffset,4
;   raftSeparationDistance,0.2
;   raftTopInfill,100
;   aboveRaftSpeedMultiplier,0.3
;   useSkirt,1
;   skirtExtruder,0
;   skirtLayers,1
;   skirtOutlines,2
;   skirtOffset,7
;   usePrimePillar,0
;   primePillarExtruder,999
;   primePillarWidth,12
;   primePillarLocation,7
;   primePillarSpeedMultiplier,1
;   useOozeShield,0
;   oozeShieldExtruder,999
;   oozeShieldOffset,2
;   oozeShieldOutlines,1
;   oozeShieldSidewallShape,1
;   oozeShieldSidewallAngle,30
;   oozeShieldSpeedMultiplier,1
;   infillExtruder,0
;   internalInfillPattern,Rectilinear
;   externalInfillPattern,Rectilinear
;   infillPercentage,0
;   outlineOverlapPercentage,25
;   infillExtrusionWidthPercentage,100
;   minInfillLength,5
;   infillLayerInterval,1
;   internalInfillAngles,45,-45
;   overlapInternalInfillAngles,0
;   externalInfillAngles,45,-45
;   generateSupport,0
;   supportExtruder,0
;   supportInfillPercentage,30
;   supportExtraInflation,0
;   supportBaseLayers,0
;   denseSupportExtruder,0
;   denseSupportLayers,0
;   denseSupportInfillPercentage,70
;   supportLayerInterval,1
;   supportHorizontalPartOffset,0.3
;   supportUpperSeparationLayers,1
;   supportLowerSeparationLayers,1
;   supportType,0
;   supportGridSpacing,4
;   maxOverhangAngle,45
;   supportAngles,0
;   temperatureName,Primary Extruder,Heated Bed
;   temperatureNumber,0,0
;   temperatureSetpointCount,2,2
;   temperatureSetpointLayers,1,5,1,5
;   temperatureSetpointTemperatures,210,200,55,50
;   temperatureStabilizeAtStartup,1,1
;   temperatureHeatedBed,0,1
;   fanLayers,1,2
;   fanSpeeds,0,100
;   blipFanToFullPower,0
;   adjustSpeedForCooling,1
;   minSpeedLayerTime,13
;   minCoolingSpeedSlowdown,20
;   increaseFanForCooling,0
;   minFanLayerTime,45
;   maxCoolingFanSpeed,100
;   increaseFanForBridging,0
;   bridgingFanSpeed,100
;   use5D,1
;   relativeEdistances,0
;   allowEaxisZeroing,1
;   independentExtruderAxes,1
;   includeM10123,0
;   stickySupport,1
;   applyToolheadOffsets,0
;   gcodeXoffset,0
;   gcodeYoffset,0
;   gcodeZoffset,-0.06
;   overrideMachineDefinition,1
;   machineTypeOverride,0
;   strokeXoverride,150
;   strokeYoverride,150
;   strokeZoverride,150
;   originOffsetXoverride,75
;   originOffsetYoverride,75
;   originOffsetZoverride,0
;   homeXdirOverride,-1
;   homeYdirOverride,-1
;   homeZdirOverride,-1
;   flipXoverride,1
;   flipYoverride,-1
;   flipZoverride,1
;   toolheadOffsets,0,0|0,0|0,0|0,0|0,0|0,0
;   overrideFirmwareConfiguration,1
;   firmwareTypeOverride,FlashForge Adventurer3.frm
;   GPXconfigOverride,r2
;   baudRateOverride,115200
;   overridePrinterModels,1
;   printerModelsOverride
;   startingGcode,
;   layerChangeGcode,
;   retractionGcode,
;   toolChangeGcode,
;   endingGcode,
;   exportFileFormat,gcode
;   celebration,0
;   celebrationSong,Random Song
;   postProcessing,{EXTENSION "g"},
;   defaultSpeed,1500
;   outlineUnderspeed,0.5
;   solidInfillUnderspeed,0.7
;   supportUnderspeed,0.7
;   rapidXYspeed,3600
;   rapidZspeed,300
;   minBridgingArea,50
;   bridgingExtraInflation,0
;   bridgingExtrusionMultiplier,1
;   bridgingSpeedMultiplier,1
;   useFixedBridgingAngle,0
;   fixedBridgingAngle,0
;   applyBridgingToPerimeters,0
;   filamentDiameters,1.75|1.75|1.75|1.75|1.75|1.75
;   filamentPricesPerKg,22|46|46|46|46|46
;   filamentDensities,1.25|1.25|1.25|1.25|1.25|1.25
;   useMinPrintHeight,0
;   minPrintHeight,0
;   useMaxPrintHeight,0
;   maxPrintHeight,0
;   useDiaphragm,0
;   diaphragmLayerInterval,20
;   robustSlicing,1
;   mergeAllIntoSolid,0
;   onlyRetractWhenCrossingOutline,1
;   retractBetweenLayers,1
;   useRetractionMinTravel,0
;   retractionMinTravel,2
;   retractWhileWiping,1
;   onlyWipeOutlines,1
;   avoidCrossingOutline,1
;   maxMovementDetourFactor,3
;   toolChangeRetractionDistance,12
;   toolChangeExtraRestartDistance,-0.5
;   toolChangeRetractionSpeed,600
;   externalThinWallType,0
;   internalThinWallType,2
;   thinWallAllowedOverlapPercentage,10
;   singleExtrusionMinLength,1
;   singleExtrusionMinPrintingWidthPercentage,50
;   singleExtrusionMaxPrintingWidthPercentage,200
;   singleExtrusionEndpointExtension,0.2
;   horizontalSizeCompensation,0
G90
M82
M107
M140 S55 T0
M104 S210 T0
M104 S0 T1
; process Process1
; layer 1, Z = 0.068
M108 T0
G92 E0.0000
G1 E-5.0000 F2400
; feature skirt
; tool H0.128 W0.400
G1 Z0.068 F300
G1 X12.600 Y-8.148 F3600
G1 E0.0000 F2400
G92 E0.0000
G1 X12.600 Y8.148 E0.3295 F450
G1 X8.148 Y12.600 E0.4569
G1 X-8.148 Y12.600 E0.7864
G1 X-12.600 Y8.148 E0.9137
G1 X-12.600 Y-8.148 E1.2433
G1 X-8.148 Y-12.600 E1.3706
G1 X8.148 Y-12.600 E1.7001
G1 X12.600 Y-8.148 E1.8274
G92 E0.0000
G1 E-5.0000 F2400
G1 X12.200 Y-7.982 F3600
G1 E0.0000 F2400
G92 E0.0000
G1 X12.200 Y7.982 E0.3228 F450
G1 X7.982 Y12.200 E0.4435
G1 X-7.982 Y12.200 E0.7663
G1 X-12.200 Y7.982 E0.8869
G1 X-12.200 Y-7.982 E1.2098
G1 X-7.982 Y-12.200 E1.3304
G1 X7.982 Y-12.200 E1.6532
G1 X12.200 Y-7.982 E1.7738
G92 E0.0000
G1 E-5.0000 F2400
; feature outer perimeter
G1 X4.800 Y-4.800 F3600
G1 E0.0000 F2400
G92 E0.0000
G1 X4.800 Y4.800 E0.1941 F225
G1 X-4.800 Y4.800 E0.3883
G1 X-4.800 Y-4.800 E0.5824
G1 X4.800 Y-4.800 E0.7765
G1 X4.800 Y-3.800 F225
; feature solid layer
G1 X3.985 Y-4.500 F3600
G92 E0.0000
G1 X4.500 Y-3.985 E0.0147 F315
G1 X4.500 Y-3.420 E0.0262
G1 X3.420 Y-4.500 E0.0571
G1 X2.854 Y-4.500 E0.0685
G1 X4.500 Y-2.854 E0.1156
G1 X4.500 Y-2.288 E0.1270
G1 X2.288 Y-4.500 E0.1903
G1 X1.723 Y-4.500 E0.2017
G1 X4.500 Y-1.723 E0.2811
G1 X4.500 Y-1.157 E0.2926
G1 X1.157 Y-4.500 E0.3882
G1 X0.591 Y-4.500 E0.3996
G1 X4.500 Y-0.591 E0.5114
G1 X4.500 Y-0.025 E0.5228
G1 X0.025 Y-4.500 E0.6508
G1 X-0.540 Y-4.500 E0.6622
G1 X4.500 Y0.540 E0.8064
G1 X4.500 Y1.106 E0.8178
G1 X-1.106 Y-4.500 E0.9782
G1 X-1.672 Y-4.500 E0.9896
G1 X4.500 Y1.672 E1.1661
G1 X4.500 Y2.237 E1.1775
G1 X-2.237 Y-4.500 E1.3702
G1 X-2.803 Y-4.500 E1.3816
G1 X4.500 Y2.803 E1.5905
G1 X4.500 Y3.369 E1.6019
G1 X-3.369 Y-4.500 E1.8270
G1 X-3.934 Y-4.500 E1.8384
G1 X4.500 Y3.934 E2.0796
G1 X4.500 Y4.500 E2.0910
G1 X-4.500 Y-4.500 E2.3484
G1 X-4.500 Y-3.934 E2.3599
G1 X3.934 Y4.500 E2.6011
G1 X3.369 Y4.500 E2.6125
G1 X-4.500 Y-3.369 E2.8376
G1 X-4.500 Y-2.803 E2.8490
G1 X2.803 Y4.500 E3.0578
G1 X2.237 Y4.500 E3.0693
G1 X-4.500 Y-2.237 E3.2620
G1 X-4.500 Y-1.672 E3.2734
G1 X1.672 Y4.500 E3.4499
G1 X1.106 Y4.500 E3.4613
G1 X-4.500 Y-1.106 E3.6217
G1 X-4.500 Y-0.540 E3.6331
G1 X0.540 Y4.500 E3.7772
G1 X-0.025 Y4.500 E3.7887
G1 X-4.500 Y0.025 E3.9166
G1 X-4.500 Y0.591 E3.9281
G1 X-0.591 Y4.500 E4.0399
G1 X-1.157 Y4.500 E4.0513
G1 X-4.500 Y1.157 E4.1469
G1 X-4.500 Y1.723 E4.1584
G1 X-1.723 Y4.500 E4.2378
G1 X-2.288 Y4.500 E4.2492
G1 X-4.500 Y2.288 E4.3125
G1 X-4.500 Y2.854 E4.3239
G1 X-2.854 Y4.500 E4.3710
G1 X-3.420 Y4.500 E4.3824
G1 X-4.500 Y3.420 E4.4133
G1 X-4.500 Y3.985 E4.4248
G1 X-3.985 Y4.500 E4.4395
G92 E0.0000
G1 E-5.0000 F2400
; layer 2, Z = 0.168
M106 S255
; feature outer perimeter
; tool H0.100 W0.400
G1 Z0.168 F300
G1 X-4.800 Y4.800 F3600
G1 E0.0000 F2400
G92 E0.0000
G1 X-4.800 Y-4.800 E0.1517 F750
G1 X4.800 Y-4.800 E0.3033
G1 X4.800 Y4.800 E0.4550
G1 X-4.800 Y4.800 E0.6067
G1 X-4.800 Y3.800 F750
; feature solid layer
G1 X-4.500 Y-3.985 F3600
G92 E0.0000
G1 X-3.985 Y-4.500 E0.0115 F1050
G1 X-3.420 Y-4.500 E0.0204
G1 X-4.500 Y-3.420 E0.0446
G1 X-4.500 Y-2.854 E0.0535
G1 X-2.854 Y-4.500 E0.0903
G1 X-2.288 Y-4.500 E0.0992
G1 X-4.500 Y-2.288 E0.1486
G1 X-4.500 Y-1.723 E0.1576
G1 X-1.723 Y-4.500 E0.2196
G1 X-1.157 Y-4.500 E0.2286
G1 X-4.500 Y-1.157 E0.3033
G1 X-4.500 Y-0.591 E0.3122
G1 X-0.591 Y-4.500 E0.3995
G1 X-0.025 Y-4.500 E0.4085
G1 X-4.500 Y-0.025 E0.5085
G1 X-4.500 Y0.540 E0.5174
G1 X0.540 Y-4.500 E0.6300
G1 X1.106 Y-4.500 E0.6389
G1 X-4.500 Y1.106 E0.7642
G1 X-4.500 Y1.672 E0.7731
G1 X1.672 Y-4.500 E0.9110
G1 X2.237 Y-4.500 E0.9200
G1 X-4.500 Y2.237 E1.0705
G1 X-4.500 Y2.803 E1.0794
G1 X2.803 Y-4.500 E1.2426
G1 X3.369 Y-4.500 E1.2515
G1 X-4.500 Y3.369 E1.4273
G1 X-4.500 Y3.934 E1.4363
G1 X3.934 Y-4.500 E1.6247
G1 X4.500 Y-4.500 E1.6336
G1 X-4.500 Y4.500 E1.8347
G1 X-3.934 Y4.500 E1.8437
G1 X4.500 Y-3.934 E2.0321
G1 X4.500 Y-3.369 E2.0410
G1 X-3.369 Y4.500 E2.2169
G1 X-2.803 Y4.500 E2.2258
G1 X4.500 Y-2.803 E2.3890
G1 X4.500 Y-2.237 E2.3979
G1 X-2.237 Y4.500 E2.5484
G1 X-1.672 Y4.500 E2.5574
G1 X4.500 Y-1.672 E2.6952
G1 X4.500 Y-1.106 E2.7042
G1 X-1.106 Y4.500 E2.8294
G1 X-0.540 Y4.500 E2.8384
G1 X4.500 Y-0.540 E2.9510
G1 X4.500 Y0.026 E2.9599
G1 X0.026 Y4.500 E3.0599
G1 X0.591 Y4.500 E3.0688
G1 X4.500 Y0.591 E3.1562
G1 X4.500 Y1.157 E3.1651
G1 X1.157 Y4.500 E3.2398
G1 X1.723 Y4.500 E3.2487
G1 X4.500 Y1.723 E3.3108
G1 X4.500 Y2.288 E3.3197
G1 X2.288 Y4.500 E3.3691
G1 X2.854 Y4.500 E3.3781
G1 X4.500 Y2.854 E3.4148
G1 X4.500 Y3.420 E3.4238
G1 X3.420 Y4.500 E3.4479
G1 X3.985 Y4.500 E3.4569
G1 X4.500 Y3.985 E3.4684
G92 E0.0000
G1 E-5.0000 F2400
; layer 3, Z = 0.268
; feature outer perimeter
G1 Z0.268 F300
G1 X4.800 Y4.800 F3600
G1 E0.0000 F2400
G92 E0.0000
G1 X-4.800 Y4.800 E0.1517 F750
G1 X-4.800 Y-4.800 E0.3033
G1 X4.800 Y-4.800 E0.4550
G1 X4.800 Y4.800 E0.6067
G1 X3.800 Y4.800 F750
; feature solid layer
G1 X-3.985 Y4.500 F3600
G92 E0.0000
G1 X-4.500 Y3.985 E0.0115 F1050
G1 X-4.500 Y3.420 E0.0204
G1 X-3.420 Y4.500 E0.0446
G1 X-2.854 Y4.500 E0.0535
G1 X-4.500 Y2.854 E0.0903
G1 X-4.500 Y2.288 E0.0992
G1 X-2.288 Y4.500 E0.1486
G1 X-1.723 Y4.500 E0.1576
G1 X-4.500 Y1.723 E0.2196
G1 X-4.500 Y1.157 E0.2286
G1 X-1.157 Y4.500 E0.3033
G1 X-0.591 Y4.500 E0.3122
G1 X-4.500 Y0.591 E0.3995
G1 X-4.500 Y0.025 E0.4085
G1 X-0.025 Y4.500 E0.5085
G1 X0.540 Y4.500 E0.5174
G1 X-4.500 Y-0.540 E0.6300
G1 X-4.500 Y-1.106 E0.6389
G1 X1.106 Y4.500 E0.7642
G1 X1.672 Y4.500 E0.7731
G1 X-4.500 Y-1.672 E0.9110
G1 X-4.500 Y-2.237 E0.9199
G1 X2.237 Y4.500 E1.0705
G1 X2.803 Y4.500 E1.0794
G1 X-4.500 Y-2.803 E1.2426
G1 X-4.500 Y-3.369 E1.2515
G1 X3.369 Y4.500 E1.4273
G1 X3.934 Y4.500 E1.4363
G1 X-4.500 Y-3.934 E1.6247
G1 X-4.500 Y-4.500 E1.6336
G1 X4.500 Y4.500 E1.8347
G1 X4.500 Y3.934 E1.8437
G1 X-3.934 Y-4.500 E2.0321
G1 X-3.369 Y-4.500 E2.0410
G1 X4.500 Y3.369 E2.2168
G1 X4.500 Y2.803 E2.2258
G1 X-2.803 Y-4.500 E2.3889
G1 X-2.237 Y-4.500 E2.3979
G1 X4.500 Y2.237 E2.5484
G1 X4.500 Y1.672 E2.5574
G1 X-1.672 Y-4.500 E2.6952
G1 X-1.106 Y-4.500 E2.7042
G1 X4.500 Y1.106 E2.8294
G1 X4.500 Y0.540 E2.8384
G1 X-0.540 Y-4.500 E2.9510
G1 X0.025 Y-4.500 E2.9599
G1 X4.500 Y-0.025 E3.0599
G1 X4.500 Y-0.591 E3.0688
G1 X0.591 Y-4.500 E3.1562
G1 X1.157 Y-4.500 E3.1651
G1 X4.500 Y-1.157 E3.2398
G1 X4.500 Y-1.723 E3.2487
G1 X1.723 Y-4.500 E3.3108
G1 X2.288 Y-4.500 E3.3197
G1 X4.500 Y-2.288 E3.3691
G1 X4.500 Y-2.854 E3.3781
G1 X2.854 Y-4.500 E3.4148
G1 X3.420 Y-4.500 E3.4238
G1 X4.500 Y-3.420 E3.4479
G1 X4.500 Y-3.985 E3.4569
G1 X3.985 Y-4.500 E3.4684
G92 E0.0000
G1 E-5.0000 F2400
; layer 4, Z = 0.368
; feature outer perimeter
G1 Z0.368 F300
G1 X4.800 Y-4.800 F3600
G1 E0.0000 F2400
G92 E0.0000
G1 X4.800 Y4.800 E0.1517 F177
G1 X-4.800 Y4.800 E0.3033
G1 X-4.800 Y-4.800 E0.4550
G1 X4.800 Y-4.800 E0.6067
G92 E0.0000
G1 X4.800 Y-4.431 E-5.0000 F177
G1 X4.800 Y-3.800 F177
; layer 5, Z = 0.468
M140 S50 T0
M104 S200 T0
G1 Z0.468 F300
G1 X4.800 Y-4.800 F3600
G1 E0.0000 F2400
G92 E0.0000
G1 X4.800 Y4.800 E0.1517 F177
G1 X-4.800 Y4.800 E0.3033
G1 X-4.800 Y-4.800 E0.4550
G1 X4.800 Y-4.800 E0.6067
G92 E0.0000
G1 X4.800 Y-4.431 E-5.0000 F177
G1 X4.800 Y-3.800 F177
; layer 6, Z = 0.568
G1 Z0.568 F300
G1 X4.800 Y-4.800 F3600
G1 E0.0000 F2400
G92 E0.0000
G1 X4.800 Y4.800 E0.1517 F177
G1 X-4.800 Y4.800 E0.3033
G1 X-4.800 Y-4.800 E0.4550
G1 X4.800 Y-4.800 E0.6067
G92 E0.0000
G1 X4.800 Y-4.431 E-5.0000 F177
G1 X4.800 Y-3.800 F177
; layer 7, Z = 0.668
G1 Z0.668 F300
G1 X4.800 Y-4.800 F3600
G1 E0.0000 F2400
G92 E0.0000
G1 X4.800 Y4.800 E0.1517 F177
G1 X-4.800 Y4.800 E0.3033
G1 X-4.800 Y-4.800 E0.4550
G1 X4.800 Y-4.800 E0.6067
G92 E0.0000
G1 X4.800 Y-4.431 E-5.0000 F177
G1 X4.800 Y-3.800 F177
; layer 8, Z = 0.768
G1 Z0.768 F300
G1 X4.800 Y-4.800 F3600
G1 E0.0000 F2400
G92 E0.0000
G1 X4.800 Y4.800 E0.1517 F177
G1 X-4.800 Y4.800 E0.3033
G1 X-4.800 Y-4.800 E0.4550
G1 X4.800 Y-4.800 E0.6067
G92 E0.0000
G1 X4.800 Y-4.431 E-5.0000 F177
G1 X4.800 Y-3.800 F177
; layer 9, Z = 0.868
G1 Z0.868 F300
G1 X4.800 Y-4.800 F3600
G1 E0.0000 F2400
G92 E0.0000
G1 X4.800 Y4.800 E0.1517 F177
G1 X-4.800 Y4.800 E0.3033
G1 X-4.800 Y-4.800 E0.4550
G1 X4.800 Y-4.800 E0.6067
G92 E0.0000
G1 X4.800 Y-4.431 E-5.0000 F177
G1 X4.800 Y-3.800 F177
; layer 10, Z = 0.968
G1 Z0.968 F300
G1 X4.800 Y-4.800 F3600
G1 E0.0000 F2400
G92 E0.0000
G1 X4.800 Y4.800 E0.1517 F177
G1 X-4.800 Y4.800 E0.3033
G1 X-4.800 Y-4.800 E0.4550
G1 X4.800 Y-4.800 E0.6067
G92 E0.0000
G1 X4.800 Y-4.431 E-5.0000 F177
G1 X4.800 Y-3.800 F177
; layer 11, Z = 1.068
G1 Z1.068 F300
G1 X4.800 Y-4.800 F3600
G1 E0.0000 F2400
G92 E0.0000
G1 X4.800 Y4.800 E0.1517 F177
G1 X-4.800 Y4.800 E0.3033
G1 X-4.800 Y-4.800 E0.4550
G1 X4.800 Y-4.800 E0.6067
G92 E0.0000
G1 X4.800 Y-4.431 E-5.0000 F177
G1 X4.800 Y-3.800 F177
; layer 12, Z = 1.168
G1 Z1.168 F300
G1 X4.800 Y-4.800 F3600
G1 E0.0000 F2400
G92 E0.0000
G1 X4.800 Y4.800 E0.1517 F177
G1 X-4.800 Y4.800 E0.3033
G1 X-4.800 Y-4.800 E0.4550
G1 X4.800 Y-4.800 E0.6067
G92 E0.0000
G1 X4.800 Y-4.431 E-5.0000 F177
G1 X4.800 Y-3.800 F177
; layer 13, Z = 1.268
G1 Z1.268 F300
G1 X4.800 Y-4.800 F3600
G1 E0.0000 F2400
G92 E0.0000
G1 X4.800 Y4.800 E0.1517 F177
G1 X-4.800 Y4.800 E0.3033
G1 X-4.800 Y-4.800 E0.4550
G1 X4.800 Y-4.800 E0.6067
G92 E0.0000
G1 X4.800 Y-4.431 E-5.0000 F177
G1 X4.800 Y-3.800 F177
; layer 14, Z = 1.368
G1 Z1.368 F300
G1 X4.800 Y-4.800 F3600
G1 E0.0000 F2400
G92 E0.0000
G1 X4.800 Y4.800 E0.1517 F177
G1 X-4.800 Y4.800 E0.3033
G1 X-4.800 Y-4.800 E0.4550
G1 X4.800 Y-4.800 E0.6067
G92 E0.0000
G1 X4.800 Y-4.431 E-5.0000 F177
G1 X4.800 Y-3.800 F177
; layer 15, Z = 1.468
G1 Z1.468 F300
G1 X4.800 Y-4.800 F3600
G1 E0.0000 F2400
G92 E0.0000
G1 X4.800 Y4.800 E0.1517 F177
G1 X-4.800 Y4.800 E0.3033
G1 X-4.800 Y-4.800 E0.4550
G1 X4.800 Y-4.800 E0.6067
G92 E0.0000
G1 X4.800 Y-4.431 E-5.0000 F177
G1 X4.800 Y-3.800 F177
; layer 16, Z = 1.568
G1 Z1.568 F300
G1 X4.800 Y-4.800 F3600
G1 E0.0000 F2400
G92 E0.0000
G1 X4.800 Y4.800 E0.1517 F177
G1 X-4.800 Y4.800 E0.3033
G1 X-4.800 Y-4.800 E0.4550
G1 X4.800 Y-4.800 E0.6067
G92 E0.0000
G1 X4.800 Y-4.431 E-5.0000 F177
G1 X4.800 Y-3.800 F177
; layer 17, Z = 1.668
G1 Z1.668 F300
G1 X4.800 Y-4.800 F3600
G1 E0.0000 F2400
G92 E0.0000
G1 X4.800 Y4.800 E0.1517 F177
G1 X-4.800 Y4.800 E0.3033
G1 X-4.800 Y-4.800 E0.4550
G1 X4.800 Y-4.800 E0.6067
G92 E0.0000
G1 X4.800 Y-4.431 E-5.0000 F177
G1 X4.800 Y-3.800 F177
; layer 18, Z = 1.768
G1 Z1.768 F300
G1 X4.800 Y-4.800 F3600
G1 E0.0000 F2400
G92 E0.0000
G1 X4.800 Y4.800 E0.1517 F177
G1 X-4.800 Y4.800 E0.3033
G1 X-4.800 Y-4.800 E0.4550
G1 X4.800 Y-4.800 E0.6067
G92 E0.0000
G1 X4.800 Y-4.431 E-5.0000 F177
G1 X4.800 Y-3.800 F177
; layer 19, Z = 1.868
